X: 22746
T: Land League
R: polka
M: 2/4
K: Dmajor
A|:Af dF|AG G/F/G|Ag ec|ed d/c/d|
Ag dF|AG G/F/G|Ag ec|dd d2:|
ee/c/ Ac|cB B/^A/B|dd/B/ ^GB|fe e/^d/e|
ee/c/ Ac|cB B/^A/B|dd/B/ ^Gc|AA A||
A|Af dF|AG G/F/G|Ag ec|ed d/c/d|
Af dF|AG G/F/G|Ag ec|dd d||
[K: GMajor] G|GB d>f|d3 z/ G/|GB d>g|b3 z/ g|
fe c>e|d3 z/ e/|ed B>G|A3 z/ G|
GB d>f|d3 z/ G/|GB d>g|b3 z/ g|
fe c>e|ed B>d|d/^c/e/d/ E>F|GG G||

